images/logo.svg

<svg width="293" height="45" viewBox="0 0 293 45" fill="none" xmlns="http://www.w3.org/2000/svg">
<path d="M20.8849 17.9019C20.8888 18.5773 20.7419 19.245 20.4551 19.8553C20.1682 20.4656 19.7488 21.0029 19.2279 21.4274C19.7393 21.9065 20.1503 22.4841 20.4366 23.1262C20.723 23.7683 20.8788 24.4617 20.8949 25.1656V39.4499C20.8793 40.6702 20.3919 41.8361 19.5365 42.6991C18.681 43.562 17.5253 44.0538 16.3157 44.0695H0.599609V0.395996H16.3057C17.5185 0.401328 18.6802 0.889747 19.5378 1.75494C20.3955 2.62013 20.8796 3.79205 20.8849 5.0156V17.9019ZM13.4034 7.8826H8.02081V18.4287H13.4034V7.8826ZM13.4034 25.9153H8.02081V36.5221H13.4034V25.9153ZM49.455 0.395996C50.6679 0.401328 51.8296 0.889747 52.6872 1.75494C53.5449 2.62013 54.029 3.79205 54.0343 5.0156V39.46C54.0187 40.6803 53.5312 41.8462 52.6758 42.7092C51.8204 43.5721 50.6647 44.0639 49.455 44.0797H38.3082C37.0969 44.0691 35.9383 43.579 35.0817 42.7149C34.2252 41.8508 33.7394 40.682 33.7289 39.46V5.0156C33.7289 3.79041 34.2114 2.61539 35.0701 1.74905C35.9289 0.882701 37.0937 0.395996 38.3082 0.395996H49.455ZM46.5428 7.8826H41.1702V36.5221H46.5528L46.5428 7.8826ZM80.1943 44.0695L77.1816 25.9153H74.3397V44.0695H66.9185V0.395996H82.6245C83.2219 0.399974 83.8127 0.522618 84.3631 0.756931C84.9135 0.991243 85.4128 1.33263 85.8324 1.76161C86.2521 2.19058 86.5838 2.69873 86.8088 3.25706C87.0337 3.81538 87.1475 4.41293 87.1435 5.0156V21.3666C87.1421 22.2358 86.8922 23.0862 86.4237 23.8157C85.9553 24.5453 85.2882 25.123 84.5024 25.4797L87.5954 44.0695H80.1943ZM79.7022 7.8826H74.3196V18.4287H79.7022V7.8826ZM114.77 0.395996C115.983 0.401328 117.144 0.889747 118.002 1.75494C118.86 2.62013 119.344 3.79205 119.349 5.0156V39.46C119.333 40.6803 118.846 41.8462 117.99 42.7092C117.135 43.5721 115.979 44.0639 114.77 44.0797H103.643C102.432 44.0691 101.273 43.579 100.416 42.7149C99.56 41.8508 99.0741 40.682 99.0636 39.46V5.0156C99.0635 3.80086 99.5377 2.63497 100.384 1.77035C101.229 0.905732 102.379 0.411979 103.583 0.395996H114.77ZM111.857 7.8826H106.475V36.5221H111.857V7.8826ZM147.919 0.395996C149.132 0.401328 150.294 0.889747 151.151 1.75494C152.009 2.62013 152.493 3.79205 152.498 5.0156V39.46C152.483 40.6803 151.995 41.8462 151.14 42.7092C150.284 43.5721 149.129 44.0639 147.919 44.0797H132.213V0.395996H147.919ZM145.017 7.8826H139.634V36.5221H145.017V7.8826ZM165.734 0.395996H173.155V44.0695H165.734V0.395996ZM206.184 0.395996V44.0695H198.763L193.32 24.9934V44.0695H185.929V0.395996H193.29L198.733 18.297V0.395996H206.184ZM234.754 18.4287C235.967 18.434 237.129 18.9224 237.986 19.7876C238.844 20.6528 239.328 21.8247 239.333 23.0483V39.46C239.318 40.6803 238.83 41.8462 237.975 42.7092C237.12 43.5721 235.964 44.0639 234.754 44.0797H223.627C222.42 44.0638 221.266 43.5714 220.414 42.7079C219.562 41.8444 219.079 40.6785 219.068 39.46V30.4741L226.489 28.7316V36.5323H231.872V25.9153H223.647C223.047 25.9166 222.453 25.7987 221.898 25.5683C221.343 25.3379 220.839 24.9994 220.414 24.5724C219.988 24.1453 219.651 23.6379 219.42 23.0791C219.189 22.5204 219.07 21.9213 219.068 21.3159V5.0156C219.068 3.79391 219.548 2.62196 220.402 1.75619C221.257 0.890426 222.416 0.401354 223.627 0.395996H234.774C235.987 0.401328 237.149 0.889747 238.006 1.75494C238.864 2.62013 239.348 3.79205 239.354 5.0156V13.8496L231.872 15.6022V7.8826H226.489V18.4287H234.754ZM266.488 22.177L273.417 44.0797H265.935L265.875 43.8264L260.312 25.9254H259.629V44.0695H252.208V0.395996H259.629V18.4287H260.241L265.935 0.395996H273.477L266.488 22.177ZM285.568 0.395996H292.989V44.0695H285.568V0.395996Z" fill="white"/>
</svg>

<svg width="293" height="45" fill="none" xmlns="http://www.w3.org/2000/svg"><path d="M20.885 17.902a4.532 4.532 0 01-.43 1.953 4.493 4.493 0 01-1.227 1.572 5.305 5.305 0 011.667 3.738V39.45a4.701 4.701 0 01-1.358 3.25 4.62 4.62 0 01-3.221 1.37H.6V.395h15.706a4.58 4.58 0 013.232 1.359 4.66 4.66 0 011.347 3.26v12.887zm-7.482-10.02H8.021V18.43h5.382V7.883zm0 18.033H8.021v10.607h5.382V25.915zM49.455.396a4.58 4.58 0 013.232 1.359 4.66 4.66 0 011.347 3.26V39.46a4.701 4.701 0 01-1.358 3.25 4.62 4.62 0 01-3.221 1.37H38.308a4.6 4.6 0 01-3.226-1.365 4.68 4.68 0 01-1.353-3.255V5.016c0-1.226.482-2.4 1.341-3.267A4.56 4.56 0 0138.308.396h11.147zm-2.912 7.487H41.17v28.64h5.383l-.01-28.64zm33.651 36.186l-3.012-18.154H74.34V44.07h-7.422V.396h15.706a4.515 4.515 0 013.208 1.366c.42.429.752.937.977 1.495.225.558.338 1.156.335 1.759v16.35a4.547 4.547 0 01-.72 2.45 4.49 4.49 0 01-1.922 1.664l3.093 18.59h-7.4zm-.492-36.186H74.32v10.546h5.382V7.883zM114.77.396a4.58 4.58 0 013.232 1.359 4.658 4.658 0 011.347 3.26V39.46a4.7 4.7 0 01-1.359 3.25 4.619 4.619 0 01-3.22 1.37h-11.127a4.602 4.602 0 01-3.227-1.365 4.683 4.683 0 01-1.352-3.255V5.016c0-1.215.474-2.381 1.32-3.246a4.558 4.558 0 013.199-1.374h11.187zm-2.913 7.487h-5.382v28.64h5.382V7.882zM147.919.396a4.577 4.577 0 013.232 1.359 4.658 4.658 0 011.347 3.26V39.46a4.7 4.7 0 01-1.358 3.25 4.621 4.621 0 01-3.221 1.37h-15.706V.396h15.706zm-2.902 7.487h-5.383v28.64h5.383V7.882zM165.734.396h7.421v43.673h-7.421V.396zm40.45 0V44.07h-7.421l-5.443-19.077V44.07h-7.391V.396h7.361l5.443 17.901V.396h7.451zm28.57 18.033a4.577 4.577 0 013.232 1.359 4.658 4.658 0 011.347 3.26V39.46a4.7 4.7 0 01-1.358 3.25 4.62 4.62 0 01-3.221 1.37h-11.127a4.6 4.6 0 01-3.213-1.372 4.685 4.685 0 01-1.346-3.248v-8.986l7.421-1.742v7.8h5.383V25.915h-8.225a4.534 4.534 0 01-3.233-1.343 4.603 4.603 0 01-.994-1.493 4.655 4.655 0 01-.352-1.763v-16.3c0-1.222.48-2.394 1.334-3.26a4.56 4.56 0 013.225-1.36h11.147a4.577 4.577 0 013.232 1.359 4.663 4.663 0 011.348 3.26v8.835l-7.482 1.752v-7.72h-5.383V18.43h8.265zm31.734 3.748l6.929 21.903h-7.482l-.06-.254-5.563-17.9h-.683v18.143h-7.421V.396h7.421v18.033h.612L265.935.396h7.542l-6.989 21.781zM285.568.396h7.421v43.673h-7.421V.396z" fill="#fff"/></svg>
